packages/kaspersky-hexa-ui-icons/src/iconsSVGs/16/Upload1.svg

<svg width="16" height="16" viewBox="0 0 16 16" fill="none" xmlns="http://www.w3.org/2000/svg">
<path d="M11.2554 4.86145C11.5092 5.11529 11.5092 5.52685 11.2554 5.78069C11.0015 6.03453 10.59 6.03453 10.3361 5.78069L8.65034 4.0949V11.8199C8.65034 12.1788 8.35933 12.4699 8.00034 12.4699C7.64136 12.4699 7.35034 12.1788 7.35034 11.8199V4.09504L5.66469 5.78069C5.41085 6.03453 4.99929 6.03453 4.74545 5.78069C4.49161 5.52685 4.49161 5.11529 4.74545 4.86145L7.54079 2.06611C7.79463 1.81227 8.20619 1.81227 8.46003 2.06611L11.2554 4.86145Z" fill="black"/>
<path d="M3.27051 8.45118C2.74584 8.45118 2.32051 8.8765 2.32051 9.40118V13.5996C2.32051 14.1243 2.74584 14.5496 3.27051 14.5496H12.7717C13.2964 14.5496 13.7217 14.1243 13.7217 13.5996V9.40118C13.7217 8.8765 13.2964 8.45118 12.7717 8.45118H11.0427C10.6837 8.45118 10.3927 8.16016 10.3927 7.80118C10.3927 7.44219 10.6837 7.15118 11.0427 7.15118H12.7717C14.0143 7.15118 15.0217 8.15853 15.0217 9.40118V13.5996C15.0217 14.8422 14.0143 15.8496 12.7717 15.8496H3.27051C2.02787 15.8496 1.02051 14.8422 1.02051 13.5996V9.40118C1.02051 8.15853 2.02787 7.15118 3.27051 7.15118H5.03534C5.39433 7.15118 5.68534 7.44219 5.68534 7.80118C5.68534 8.16016 5.39433 8.45118 5.03534 8.45118H3.27051Z" fill="black"/>
</svg>

<svg xmlns="http://www.w3.org/2000/svg" width="16" height="16" fill="none" viewBox="0 0 16 16"><path fill="#000" d="M11.2554 4.8614a.65.65 0 0 1-.9193.9193L8.6503 4.0949v7.725a.65.65 0 0 1-1.3 0V4.095L5.6647 5.7807a.65.65 0 0 1-.9192-.9193l2.7953-2.7953a.65.65 0 0 1 .9192 0z"/><path fill="#000" d="M3.2705 8.4512a.95.95 0 0 0-.95.95v4.1984a.95.95 0 0 0 .95.95h9.5012a.95.95 0 0 0 .95-.95V9.4012a.95.95 0 0 0-.95-.95h-1.729a.65.65 0 1 1 0-1.3h1.729c1.2426 0 2.25 1.0073 2.25 2.25v4.1984c0 1.2426-1.0074 2.25-2.25 2.25H3.2705c-1.2426 0-2.25-1.0074-2.25-2.25V9.4012c0-1.2427 1.0074-2.25 2.25-2.25h1.7648a.65.65 0 1 1 0 1.3z"/></svg>
